svg/sph4u/wave-diffraction.svg

<svg xmlns="http://www.w3.org/2000/svg" viewBox="0 0 248.601 132" xml:space="preserve"><path fill="none" stroke="#000" stroke-miterlimit="10" d="M48.25.5h20v37h-20zm0 94h20v37h-20z"/><path fill="none" stroke="#000" stroke-width=".5" stroke-miterlimit="10" d="M40.25 0v132m-8-132v132m-8-132v132m-8-132v132m-8-132v132M.25 0v132m96-91v50m-8-50v50m-8-50v50m-8-50v50m-8-50v50m-8-50v50m-8-50v50"/><path fill="none" stroke="#000" stroke-miterlimit="10" d="M190.25.5h20v60h-20zm0 71h20v60h-20z"/><path fill="none" stroke="#000" stroke-width=".5" stroke-miterlimit="10" d="M182.25 0v132m-8-132v132m-8-132v132m-8-132v132m-8-132v132m-8-132v132m64-68.5v4.779m-8-4.779v4.779m-8-4.779v4.779m25.5-9.878a7.488 7.488 0 0 1 0 14.976"/><path fill="none" stroke="#000" stroke-width=".5" stroke-miterlimit="10" d="M215.75 51.052c8.194 0 14.837 6.643 14.837 14.837s-6.643 14.837-14.837 14.837"/><path fill="none" stroke="#000" stroke-width=".5" stroke-miterlimit="10" d="M215.75 42.776c12.765 0 23.114 10.348 23.114 23.114s-10.348 23.114-23.114 23.114"/><path fill="none" stroke="#000" stroke-width=".5" stroke-miterlimit="10" d="M215.75 33.289c18.005 0 32.601 14.596 32.601 32.601s-14.596 32.6-32.601 32.6"/></svg>

<svg xmlns="http://www.w3.org/2000/svg" viewBox="0 0 248.601 132" xml:space="preserve"><path fill="none" stroke="#000" stroke-miterlimit="10" d="M48.25.5h20v37h-20zM48.25 94.5h20v37h-20z"/><path fill="none" stroke="#000" stroke-width=".5" stroke-miterlimit="10" d="M40.25 0v132M32.25 0v132M24.25 0v132M16.25 0v132M8.25 0v132M.25 0v132M96.25 41v50M88.25 41v50M80.25 41v50M72.25 41v50M64.25 41v50M56.25 41v50M48.25 41v50"/><path fill="none" stroke="#000" stroke-miterlimit="10" d="M190.25.5h20v60h-20zM190.25 71.5h20v60h-20z"/><path fill="none" stroke="#000" stroke-width=".5" stroke-miterlimit="10" d="M182.25 0v132M174.25 0v132M166.25 0v132M158.25 0v132M150.25 0v132M142.25 0v132M206.25 63.5v4.779M198.25 63.5v4.779M190.25 63.5v4.779M215.75 58.401a7.488 7.488 0 0 1 0 14.976"/><path fill="none" stroke="#000" stroke-width=".5" stroke-miterlimit="10" d="M215.75 51.052c8.194 0 14.837 6.643 14.837 14.837s-6.643 14.837-14.837 14.837"/><path fill="none" stroke="#000" stroke-width=".5" stroke-miterlimit="10" d="M215.75 42.776c12.765 0 23.114 10.348 23.114 23.114s-10.348 23.114-23.114 23.114"/><path fill="none" stroke="#000" stroke-width=".5" stroke-miterlimit="10" d="M215.75 33.289c18.005 0 32.601 14.596 32.601 32.601s-14.596 32.6-32.601 32.6"/></svg>
